X:1
T:Great Speckled Bird
M:4/4
L:1/8
K:G
 Bc| d2 BG B2 cB| A E4- Ec-c| d2 cA F2 ED| B6B-B| d2 BG B2 cB| A E4- Ee e|\
 d2 cAF-D BA| G6||
